source/img/404/image-element-2.svg

<svg width="51" height="51" viewBox="0 0 51 51" fill="none" xmlns="http://www.w3.org/2000/svg">
<g filter="url(#filter0_i)">
<path fill-rule="evenodd" clip-rule="evenodd" d="M21.5 1C21.5 0.447715 21.9477 0 22.5 0H28.5C29.0523 0 29.5 0.447715 29.5 1V6.52175C31.8488 7.07655 34.0334 8.05609 35.9684 9.37482L39.9958 5.34745C40.3863 4.95693 41.0195 4.95693 41.41 5.34745L45.6527 9.59009C46.0432 9.98062 46.0432 10.6138 45.6527 11.0043L41.521 15.136C42.729 17.0575 43.611 19.2047 44.0895 21.5H50C50.5523 21.5 51 21.9477 51 22.5V28.5C51 29.0523 50.5523 29.5 50 29.5H44.0895C43.611 31.7953 42.729 33.9424 41.521 35.864L45.6527 39.9957C46.0432 40.3862 46.0432 41.0194 45.6527 41.4099L41.41 45.6525C41.0195 46.0431 40.3863 46.0431 39.9958 45.6525L35.9684 41.6252C34.0334 42.9439 31.8488 43.9234 29.5 44.4782V50C29.5 50.5523 29.0523 51 28.5 51H22.5C21.9477 51 21.5 50.5523 21.5 50V44.6867C19.0164 44.2366 16.6966 43.3161 14.6362 42.0208L11.0044 45.6525C10.6139 46.0431 9.98074 46.0431 9.59022 45.6525L5.34758 41.4099C4.95705 41.0194 4.95705 40.3862 5.34758 39.9957L8.875 36.4683C7.46318 34.3967 6.44013 32.0389 5.91082 29.5H1C0.447715 29.5 0 29.0523 0 28.5V22.5C0 21.9477 0.447715 21.5 1 21.5H5.91082C6.44012 18.9611 7.46318 16.6033 8.875 14.5317L5.34758 11.0043C4.95705 10.6138 4.95705 9.98062 5.34758 9.59009L9.59022 5.34745C9.98074 4.95693 10.6139 4.95693 11.0044 5.34745L14.6362 8.97918C16.6966 7.6839 19.0164 6.76339 21.5 6.31327V1ZM25.0002 35.25C19.6154 35.25 15.2502 30.8848 15.2502 25.5C15.2502 20.1152 19.6154 15.75 25.0002 15.75C30.385 15.75 34.7502 20.1152 34.7502 25.5C34.7502 30.8848 30.385 35.25 25.0002 35.25Z" fill="url(#paint0_linear)"/>
</g>
<defs>
<filter id="filter0_i" x="-2" y="-2" width="53" height="53" filterUnits="userSpaceOnUse" color-interpolation-filters="sRGB">
<feFlood flood-opacity="0" result="BackgroundImageFix"/>
<feBlend mode="normal" in="SourceGraphic" in2="BackgroundImageFix" result="shape"/>
<feColorMatrix in="SourceAlpha" type="matrix" values="0 0 0 0 0 0 0 0 0 0 0 0 0 0 0 0 0 0 127 0" result="hardAlpha"/>
<feOffset dx="-2" dy="-2"/>
<feGaussianBlur stdDeviation="2"/>
<feComposite in2="hardAlpha" operator="arithmetic" k2="-1" k3="1"/>
<feColorMatrix type="matrix" values="0 0 0 0 0 0 0 0 0 0 0 0 0 0 0 0 0 0 0.2 0"/>
<feBlend mode="normal" in2="shape" result="effect1_innerShadow"/>
</filter>
<linearGradient id="paint0_linear" x1="49.4279" y1="25.5" x2="1.50908" y2="24.4711" gradientUnits="userSpaceOnUse">
<stop stop-color="#A62E41"/>
<stop offset="1" stop-color="#E13152"/>
</linearGradient>
</defs>
</svg>

<svg width="51" height="51" fill="none" xmlns="http://www.w3.org/2000/svg"><g filter="url(#filter0_i)"><path fill-rule="evenodd" clip-rule="evenodd" d="M21.5 1a1 1 0 011-1h6a1 1 0 011 1v5.522a19.4 19.4 0 016.468 2.853l4.028-4.028a1 1 0 011.414 0l4.243 4.243a1 1 0 010 1.414l-4.132 4.132A19.382 19.382 0 0144.09 21.5H50a1 1 0 011 1v6a1 1 0 01-1 1h-5.91a19.383 19.383 0 01-2.569 6.364l4.132 4.132a1 1 0 010 1.414l-4.243 4.243a1 1 0 01-1.414 0l-4.028-4.028a19.4 19.4 0 01-6.468 2.853V50a1 1 0 01-1 1h-6a1 1 0 01-1-1v-5.313a19.38 19.38 0 01-6.864-2.666l-3.632 3.632a1 1 0 01-1.414 0L5.348 41.41a1 1 0 010-1.414l3.527-3.528A19.396 19.396 0 015.911 29.5H1a1 1 0 01-1-1v-6a1 1 0 011-1h4.91a19.395 19.395 0 012.965-6.968l-3.527-3.528a1 1 0 010-1.414L9.59 5.347a1 1 0 011.414 0l3.632 3.632A19.38 19.38 0 0121.5 6.313V1zM25 35.25c-5.385 0-9.75-4.365-9.75-9.75s4.365-9.75 9.75-9.75 9.75 4.365 9.75 9.75-4.365 9.75-9.75 9.75z" fill="url(#paint0_linear)"/></g><defs><linearGradient id="paint0_linear" x1="49.428" y1="25.5" x2="1.509" y2="24.471" gradientUnits="userSpaceOnUse"><stop stop-color="#A62E41"/><stop offset="1" stop-color="#E13152"/></linearGradient><filter id="filter0_i" x="-2" y="-2" width="53" height="53" filterUnits="userSpaceOnUse" color-interpolation-filters="sRGB"><feFlood flood-opacity="0" result="BackgroundImageFix"/><feBlend in="SourceGraphic" in2="BackgroundImageFix" result="shape"/><feColorMatrix in="SourceAlpha" values="0 0 0 0 0 0 0 0 0 0 0 0 0 0 0 0 0 0 127 0" result="hardAlpha"/><feOffset dx="-2" dy="-2"/><feGaussianBlur stdDeviation="2"/><feComposite in2="hardAlpha" operator="arithmetic" k2="-1" k3="1"/><feColorMatrix values="0 0 0 0 0 0 0 0 0 0 0 0 0 0 0 0 0 0 0.2 0"/><feBlend in2="shape" result="effect1_innerShadow"/></filter></defs></svg>
